X:1
T:Chrysanthemum.
T:THE  CHRYSANTHEMUM.
T:By  SCOTT  JOPLIN. Composer of “Maple Leaf Rag.”
T:An Afro-American Intermezzo.
T:Public Domain
T:Public Domain
T:Public Domain
T:Public Domain
T:Public Domain
C:Scott Joplin
Z:Public Domain
%%score { ( 1 4 ) | ( 2 3 ) }
L:1/8
Q:1/4=60
M:2/4
K:Bb
V:1 treble nm="Piano"
V:4 treble 
V:2 bass 
V:3 bass 
V:1
"^Slow March Tempo.""^Intro.""^r.h." (f/=e/_e/d/ c2) | (E/D/C/_C/ B,2) | (G/^F/G/e/) d/=F/c | %3
 B z z d |:!mf! e/f/g/A/ c/d/e/G/ | B/c/d/F/- F/B/F | (F/^F/G/)e/ (G/^G/A/)e/ | d/B/d/f/- fd | %8
 e/f/g/A/ c/d/e/G/ | B/c/d/F/-!<(! F/(=E/F/G/)!<)! |!<(! (A/B/=B/c/ d/)!<)!c/_B/g/ | %11
!f! f2- f!>(! d!>)! |!mf! e/f/g/A/ c/d/e/G/ | B/c/d/F/- F/B/F | (F/^F/G/e/) (G/^G/A/e/) | %15
 d/B/d/f/- f2 | d/e/f/G/ =B/c/d/G/ | (c/=B/c/d/) [ce][_B^c=e] | f/b/f/d/ c/F/A/f/ |1 B2- B d :|2 %20
 B2 [Bdfb] z |:[K:F]!f! [Afa] [cac']3 | [dbd'] [fd'f']2 f'/d'/ | c'a/b/- b/c'/[eg] | f/e/f/a/- a2 | %25
 [Afa] [cac']3 | [dbd'] [fd'f']2 [fd'f'] | [ee'][^d^d']/[ee']/- [ee']/[ff']/[ee'] | %28
 [eac'e']2 (d'c') | [Afa] [cac']3 | [dbd'][fd'f']- [fd'f']/(d'/b/f/) | a/^g/a/c'/ d'/_e'/d'/c'/ | %32
 b3 d/e/ | f/g/f/e/ fd | c [ca]2 b/a/ | (f/d/e/f/) [_Bg][Bea] |1 [Af](=B/c/ d/e/f/g/) :|2 %37
 [Af]2- [Af] d ||[K:Bb]!mf! e/f/g/A/ c/d/e/G/ | B/c/d/F/- F/B/F | (F/^F/G/e/) (G/^G/A/e/) | %41
 d/B/d/f/- fd | e/f/g/A/ c/d/e/G/ | B/c/d/F/-!<(! F/(=E/F/G/)!<)! |!<(! (A/B/=B/c/)!<)! d/c/_B/g/ | %45
!f! f2- f!>(! d!>)! |!mf! e/f/g/A/ c/d/e/G/ | B/c/d/F/- F/B/F | (F/^F/G/e/) (G/^G/A/e/) | %49
 d/B/d/f/- f2 | d/e/f/G/!<(! =B/c/d/G/!<)! |!<(! (c/=B/c/d/) [ce][_B^c=e]!<)! | %52
!f! f/b/f/d/ c/F/A/f/ | B2 [Bdfb] z |:[K:Eb]!p! ([GB]>[^F=A]) ([=F_A][Adf]) | ([Ge]>[EG]) (cB) | %56
 f/=e/f/e/ fa | [Bg]4 | ([GB]>[^F=A]) ([=F_A][Adf]) | ([Ge]>!<(![EG]) [Gc][_G^c] | %60
 (d/^c/!<)!!<(!d/f/) [=EB][_E=A=c]!<)! | [DB]3!>(! B!>)! |!p! ([GB]>[^F=A]) ([=F_A][Adf]) | %63
 ([Ge]>[EG]) (cB) | f/=e/f/e/ f^f | [=Bdg]3!<(! g!<)! |!<(! (g>f) (d'c')!<)! | %67
!mf! (c'b-) b/g/e/B/ | (c/^c/d/f/) (d/e/f/b/) |1 e2- e!>(! [AB]!>)! :|2 e2!>(! [ege'] z!>)! |: %71
!mf! c/e/d/e/- e/^f/g/c'/ | =bg/f/ e/d=B/ | c/e/d/e/- e/^f/g/c'/ | =bg/f/!<(! e/d=B/!<)! | %75
!f! (c/=B/c/B/ c)A | Gg/^f/ gg | (c/=B/c/B/) cA | [=B,DFG] z !^![G=Bdg]!>(! z!>)! | %79
!mf! c/e/d/e/- e/^f/g/c'/ | =bg/f/ e/d=B/ | c/e/d/e/- e/^f/g/c'/ | =bg/f/ e/d=B/ | %83
 c/g/^f/g/ c'/g/^f/g/ | a3 a | g/a/g/f/ d/f/e/d/ |1 c2 [G=Bdg]2 :|2 c2 [FAB]2 || %88
!p! ([GB]>[^F=A]) ([=F_A][Adf]) | ([Ge]>[EG]) (cB) | f/=e/f/e/ fa | [Bg]4 | %92
 ([GB]>[^F=A]) ([=F_A][Adf]) | ([Ge]>!<(![EG]) [Gc][_G^c]!<)! |!<(! (d/^c/d/f/) [=EB][_E=A=c]!<)! | %95
 [DB]3!>(! B!>)! |!p! ([GB]>[^F=A]) ([=F_A][Adf]) | ([Ge]>[EG]) (cB) | f/=e/f/e/ f^f | %99
 [=Bdg]3!<(! g | (g>!<)!!<(!f) (d'c')!<)! |!mf! (c'b-) (b/g/e/B/) | (c/^c/d/f/) (d/e/f/b/) | %103
 e2 !^![ege'] z!fine! |] %104
V:2
"^l.h."!ped![I:staff -1] (F/=E/_E/D/ C2)!ped-up! |!ped![I:staff +1] (E,/D,/C,/_C,/ B,,2)!ped-up! | %2
!ped! [E,,E,][G,CE] [F,,F,][F,A,E]!ped-up! |!ped! B,,[F,B,D] F,,[F,B,D]!ped-up! |: %4
!ped! [C,C][F,A,E] F,,[F,A,E]!ped-up! |!ped! B,,[F,B,D] F,,[F,B,D]!ped-up! | %6
!ped! A,,[F,A,E] F,,[F,CE]!ped-up! |!ped! B,,[F,B,D] [D,D][=B,,=B,]!ped-up! | %8
!ped! [C,C][F,A,E] F,,[F,A,E]!ped-up! |!ped! B,,[F,B,D] =B,,[F,^G,D]!ped-up! | %10
!ped! C,[F,A,C] C,[B,C=E]!ped-up! |!ped! [A,CF]2- [A,CF]!ped-up! z | %12
!ped! C,[F,A,E] F,,[F,A,E]!ped-up! |!ped! B,,[F,B,D] F,,[F,B,D]!ped-up! | %14
!ped! A,,[F,A,E] F,,[F,CE]!ped-up! |!ped! B,,[F,B,D] D,[F,B,D]!ped-up! | %16
!ped! G,[=B,D] F,[G,B,D]!ped-up! |!ped! E,[G,C] [G,,G,][_G,,_G,]!ped-up! | %18
!ped! [F,,F,][F,B,D] [F,,F,][F,A,CE]!ped-up! |1!ped! B,,[F,B,D] [D,D][=B,,=B,]!ped-up! :|2 %20
!ped! B,F, B,,!ped-up! z |:[K:F]!ped! [F,,F,][A,CF] C,[A,CF]!ped-up! | %22
!ped! B,,[B,DF] [D,D][B,,B,]!ped-up! |!ped! [A,,A,][A,CF] [G,,G,][C,,C,]!ped-up! | %24
!ped! [F,,F,][A,CF] C,[A,CF]!ped-up! |!ped! [F,,F,][A,CF] C,[A,CF]!ped-up! | %26
!ped! B,,[B,DF] D,[A,D]!ped-up! |!ped! E,[A,C] E,[^G,=B,D]!ped-up! | [A,C]2 [C,,C,]2 | %29
!ped! [F,,F,][A,CF] C,[A,CF]!ped-up! |!ped! B,,[B,DF] D,[B,DF]!ped-up! | %31
!ped! F,[A,C] ^F,[A,CD]!ped-up! |!ped! G,[B,D][B,D] z!ped-up! | %33
!ped! B,,[B,DF] =B,,[^G,DF]!ped-up! |!ped! C,[A,CF] D,[A,C^F]!ped-up! | %35
!ped! [G,,G,][G,=B,=F] C,[_B,CE]!ped-up! |1!ped! [F,A,CF] z z2!ped-up! :|2 %37
!ped! [A,CF]3 z!ped-up! ||[K:Bb]!ped! C,[F,A,E] F,,[F,A,E]!ped-up! | %39
!ped! B,,[F,B,D] F,,[F,B,D]!ped-up! |!ped! A,,[F,A,E] F,,[F,CE]!ped-up! | %41
!ped! B,,[F,B,D] [D,D][=B,,=B,]!ped-up! |!ped! [C,C][F,A,E] F,,[F,A,E]!ped-up! | %43
!ped! B,,[F,B,D] =B,,[F,^G,D]!ped-up! |!ped! C,[F,A,C] C,[B,C=E]!ped-up! | %45
!ped! [A,CF]2- [A,CF] z!ped-up! |!ped! C,[F,A,E] F,,[F,A,E]!ped-up! | %47
!ped! B,,[F,B,D] F,,[F,B,D]!ped-up! |!ped! A,,[F,A,E] F,,[F,CE]!ped-up! | %49
!ped! B,,[F,B,D] D,[F,B,D]!ped-up! |!ped! G,[=B,D] F,[G,B,D]!ped-up! | %51
!ped! E,[G,C] [G,,G,][_G,,_G,]!ped-up! |!ped! [F,,F,][F,B,D] [F,,F,][F,A,CE]!ped-up! | %53
!ped! [B,D]F, B,,!ped-up! z |:[K:Eb]"^dolce."!ped! (E,C, D,B,,)!ped-up! | %55
!ped! E,[G,B,] B,,[G,B,E]!ped-up! |!ped! D,[B,D] B,,[B,D]!ped-up! | %57
!ped! z/ (B,/C/D/ E/D/C/B,/)!ped-up! |!ped! (E,C, D,B,,)!ped-up! |!ped! E,[G,B,] E,=E,!ped-up! | %60
!ped! F,[B,D] [G,,G,][F,,F,]!ped-up! |!ped! [B,,B,]{/=E,}F,B,, z!ped-up! | %62
!ped! (E,C, D,B,,)!ped-up! |!ped! E,[G,B,] B,,[G,B,E]!ped-up! | %64
!ped! D,[B,D] [B,,B,][A,,A,]!ped-up! |!ped! [G,,G,]{/^C,}D,G,, z!ped-up! | %66
!ped! A,,[A,C] =A,,[^F,CE]!ped-up! |!ped! B,,[G,B,E] E,[G,B,E]!ped-up! | %68
!ped! D,[A,B,] B,,[A,B,D]!ped-up! |1!ped! [G,B,E]2- [G,B,E] z!ped-up! :|2 %70
!ped! [G,B,E]2- [G,B,E]!ped-up! z |: C,[G,CE] C,[G,CE] |!ped! z [G,=B,F][G,B,F][G,B,F]!ped-up! | %73
 C,[G,CE] C,[G,CE] |!ped! z [G,=B,F][G,B,F][G,B,F]!ped-up! |!ped! F,,3 x!ped-up! | %76
!ped! [G,,G,]3 [G,,G,]!ped-up! |!ped! [A,,A,][A,CD] [A,CD][F,,F,]!ped-up! | %78
 [G,,G,] z !^![G,,,G,,] z | C,[G,CE] C,[G,CE] |!ped! G,,4!ped-up! | C,[G,CE] C,[G,CE] | %82
!ped! G,,4!ped-up! | C,[G,CE] C,[G,CE] |!ped! F,,3 z!ped-up! | G,,[G,=B,F] G,,[G,B,F] |1 %86
 [CE]2 [G,,G,]2 :|2 [CE]2 D,2 ||"^dolce."!ped! (E,C, D,B,,)!ped-up! | %89
!ped! E,[G,B,] B,,[G,B,E]!ped-up! |!ped! D,[B,D] B,,[B,D]!ped-up! |!ped! E,4!ped-up! | %92
!ped! (E,C, D,B,,)!ped-up! |!ped! E,[G,B,] E,=E,!ped-up! |!ped! F,[B,D] [G,,G,][F,,F,]!ped-up! | %95
!ped! [B,,B,]{/=E,}F,B,, z!ped-up! |!ped! (E,C, D,B,,)!ped-up! |!ped! E,[G,B,] B,,[G,B,E]!ped-up! | %98
!ped! D,[B,D] [B,,B,][A,,A,]!ped-up! |!ped! [G,,G,]{/^C,}D,G,, z!ped-up! | %100
!ped! A,,[A,C] =A,,[^F,CE]!ped-up! |!ped! B,,[G,B,E] E,[G,B,E]!ped-up! | %102
!ped! D,[A,B,] B,,[A,B,D]!ped-up! |!ped! [G,B,E]2- !^![G,B,E]!ped-up! z |] %104
V:3
 x4 | x4 | x4 | x4 |: x4 | x4 | x4 | x4 | x4 | x4 | x4 | F,{/=B,,}C, F,, z | x4 | x4 | x4 | x4 | %16
 G,2 F,2 | E,2 x2 | x4 |1 x4 :|2 D2 x x |:[K:F] x4 | x4 | x4 | x4 | x4 | B,,2 D,2 | E,2 E,2 | x4 | %29
 x4 | x4 | F,2 ^F,2 | G,3 x | B,,2 =B,,2 | C,2 D,2 | x4 |1 x4 :|2 F,C,F,, x ||[K:Bb] x4 | x4 | x4 | %41
 x4 | x4 | x4 | x4 | F,{/=B,,}C, F,, z | x4 | x4 | x4 | x4 | G,2 F,2 | E,2 x2 | x4 | x4 |: %54
[K:Eb] x4 | x4 | x4 | E,4 | x4 | x4 | x4 | x4 | x4 | x4 | x4 | x4 | x4 | x4 | D,2 B,,2 |1 %69
 E,B,, C,D, :|2 E,{/=A,,}B,, E,, z |: x4 | G,,4 | x4 | G,,4 | F,,[A,CDF] [A,CDF][F,,F,] | x4 | x4 | %78
 x4 | x4 | z [G,=B,F][G,B,F][G,B,F] | x4 | z [G,=B,F][G,B,F][G,B,F] | x4 | F,,[A,CF][A,CF] x | %85
 x4 |1 x4 :|2 x4 || x4 | x4 | x4 | z/ (B,/C/D/ E/D/C/B,/) | x4 | x4 | x4 | x4 | x4 | x4 | x4 | x4 | %100
 x4 | x4 | x4 | E,{/=A,,}B,, !^!E,, z |] %104
V:4
 x4 | x4 | x4 | x4 |: x4 | x4 | x4 | x4 | x4 | x4 | x4 | x4 | x4 | x4 | x4 | x4 | x4 | x4 | %18
 [Bd]2 x2 |1 x4 :|2 x4 |:[K:F] x4 | x4 | x4 | x4 | x4 | x4 | x4 | x2 [eb]2 | x4 | x4 | x4 | x4 | %33
 x4 | x4 | =B2 x2 |1 x4 :|2 x4 ||[K:Bb] x4 | x4 | x4 | x4 | x4 | x4 | x4 | x4 | x4 | x4 | x4 | x4 | %50
 x4 | x4 | [Bd]2 x2 | x4 |:[K:Eb] x4 | x2 G2 | A3 c | x4 | x4 | x4 | F2 x2 | x4 | x4 | x2 G2 | %64
 A3 [cd] | x4 | c2 [e^f]2 | [eg]2 z2 | x4 |1 x4 :|2 x4 |: x4 | x4 | x4 | x4 | A3 [CDF] | %76
 [=B,DF]3 [G=Bd] | FF F[CDF] | x4 | x4 | x4 | x4 | x4 | x4 | x4 | x4 |1 x4 :|2 x4 || x4 | x2 G2 | %90
 A3 c | x4 | x4 | x4 | F2 x2 | x4 | x4 | x2 G2 | A3 [cd] | x4 | c2 [e^f]2 | [eg]2 z2 | x4 | x4 |] %104

